icons/desktop/16/svg/help-16.svg

<svg width="16" height="16" viewBox="0 0 16 16" fill="none" xmlns="http://www.w3.org/2000/svg">
<path d="M8 10.6875C8.48325 10.6875 8.875 11.0793 8.875 11.5625C8.87474 12.0455 8.48309 12.4375 8 12.4375C7.51691 12.4375 7.12526 12.0455 7.125 11.5625C7.125 11.0793 7.51675 10.6875 8 10.6875Z" fill="black"/>
<path d="M5.52441 5.46973C5.8498 4.23185 7.08042 3.36059 8.45898 3.60254C9.62349 3.80727 10.4921 4.83465 10.5576 5.9873L10.5596 6.21973C10.5205 7.24619 9.88467 7.84977 9.40625 8.22656C9.39753 8.23343 9.38791 8.24061 9.37891 8.24707L8.75 8.69727V9.1875C8.74974 9.60149 8.41405 9.9375 8 9.9375C7.58595 9.9375 7.25026 9.60149 7.25 9.1875V8.56934C7.25002 8.16501 7.44574 7.78755 7.77148 7.55371L8.47656 7.04785C8.86387 6.74283 9.04736 6.50601 9.06055 6.16309L9.05957 6.06738C9.03229 5.62369 8.70439 5.2179 8.28906 5.10059L8.19922 5.08008C7.61803 4.97814 7.11039 5.33876 6.97559 5.85059C6.87017 6.25088 6.45996 6.49081 6.05957 6.38574C5.6591 6.28048 5.41938 5.8702 5.52441 5.46973Z" fill="black"/>
<path fill-rule="evenodd" clip-rule="evenodd" d="M8 0C12.4183 0 16 3.58172 16 8C16 12.4183 12.4183 16 8 16C3.58172 16 0 12.4183 0 8C0 3.58172 3.58172 0 8 0ZM8 1.5C4.41015 1.5 1.5 4.41015 1.5 8C1.5 11.5899 4.41015 14.5 8 14.5C11.5899 14.5 14.5 11.5899 14.5 8C14.5 4.41015 11.5899 1.5 8 1.5Z" fill="black"/>
</svg>

<!-- This Source Code Form is subject to the terms of the Mozilla Public
   - License, v. 2.0. If a copy of the MPL was not distributed with this
   - file, You can obtain one at http://mozilla.org/MPL/2.0/. -->
<svg xmlns="http://www.w3.org/2000/svg" width="16" height="16" fill="context-fill" fill-opacity="context-fill-opacity" viewBox="0 0 16 16">
    <path d="M8 10.688a.875.875 0 1 1 0 1.75.875.875 0 0 1 0-1.75M5.524 5.47A2.563 2.563 0 0 1 8.46 3.603c1.164.204 2.033 1.232 2.099 2.384l.002.233c-.04 1.026-.675 1.63-1.154 2.007l-.027.02-.629.45v.49a.75.75 0 0 1-1.5 0V8.57c0-.404.196-.781.521-1.015l.706-.506c.387-.305.57-.542.584-.885l-.001-.096a1.1 1.1 0 0 0-.77-.966l-.09-.02a1.06 1.06 0 0 0-1.224.77.75.75 0 0 1-1.452-.381" />
    <path fill-rule="evenodd" d="M8 0a8 8 0 1 1 0 16A8 8 0 0 1 8 0m0 1.5a6.5 6.5 0 1 0 0 13 6.5 6.5 0 0 0 0-13" clip-rule="evenodd" />
</svg>
